Assets/Roadmap.svg

<svg height="400" viewBox="0 0 900 400" width="900" xmlns="http://www.w3.org/2000/svg"><g fill="none" fill-rule="evenodd"><g transform="translate(14 90)"><path d="m59.5 109.99142c14.6666667.292808 22-6.908835 22-21.6049266 0-14.696092 0-40.5828773 0-77.6603558" stroke="#4b536a" stroke-width="3"/><g fill="#4b536a"><text font-family="Courier-Bold, Courier" font-size="13" font-weight="bold" letter-spacing="-.5142857"><tspan x="96" y="13">Tests</tspan></text><circle cx="81.5" cy="10.5" r="4.5"/><text font-family="Courier-Bold, Courier" font-size="13" font-weight="bold" letter-spacing="-.5142857"><tspan x=".417146" y="63">CSVReader</tspan></text><circle cx="81.5" cy="59.5" r="4.5"/></g></g><g transform="matrix(1 0 0 -1 115 306)"><path d="m58.5 105.99142c14.6666667.292808 22-6.9088346 22-21.6049266s0-40.5828773 0-77.66035583" stroke="#4b536a" stroke-width="3"/><g fill="#4b536a"><text font-family="Courier-Bold, Courier" font-size="13" font-weight="bold" letter-spacing="-.5142857" transform="matrix(1 0 0 -1 0 16)"><tspan x="95" y="13">Tests</tspan></text><circle cx="80.5" cy="6.5" r="4.5"/><text font-family="Courier-Bold, Courier" font-size="13" font-weight="bold" letter-spacing="-.5142857" transform="matrix(1 0 0 -1 0 114)"><tspan x=".417146" y="62">CSVWriter</tspan></text><circle cx="80.5" cy="55.5" r="4.5"/></g></g><g transform="translate(171 82)"><path d="m102.5 117.99142c14.666667.292808 22-6.908835 22-21.6049266 0-14.696092 0-40.5828773 0-77.6603558" stroke="#4b536a" stroke-width="3"/><g fill="#4b536a"><text font-family="Courier-Bold, Courier" font-size="13" font-weight="bold" letter-spacing="-.5142857"><tspan x="140" y="13">Codable</tspan> <tspan x="140" y="29">Configuration</tspan></text><circle cx="124.5" cy="18.5" r="4.5"/><text font-family="Courier-Bold, Courier" font-size="13" font-weight="bold" letter-spacing="-.5142857"><tspan x=".695243" y="63">Reader &amp; Writer</tspan> <tspan x="15.26921" y="79">Configuration</tspan></text><circle cx="124.5" cy="67.5" r="4.5"/></g></g><path d="m10 200h880" stroke="#c1c9d8" stroke-linecap="square" stroke-width="3"/><g transform="matrix(1 0 0 -1 315 306)"><path d="m58.5 105.99142c14.6666667.292808 22-6.9088346 22-21.6049266s0-40.5828773 0-77.66035583" stroke="#4b536a" stroke-width="3"/><g fill="#4b536a"><text font-family="Courier-Bold, Courier" font-size="13" font-weight="bold" letter-spacing="-.5142857" transform="matrix(1 0 0 -1 0 16)"><tspan x="95" y="13">Tests</tspan></text><circle cx="80.5" cy="6.5" r="4.5"/><text font-family="Courier-Bold, Courier" font-size="13" font-weight="bold" letter-spacing="-.5142857" transform="matrix(1 0 0 -1 0 114)"><tspan x=".417146" y="62">Decodable</tspan></text><circle cx="80.5" cy="55.5" r="4.5"/></g></g><g transform="translate(421 90)"><path d="m52.5 109.99142c14.6666667.292808 22-6.908835 22-21.6049266 0-14.696092 0-40.5828773 0-77.6603558" stroke="#c1c9d8" stroke-width="3"/><g fill="#c1c9d8"><text font-family="Courier-Bold, Courier" font-size="13" font-weight="bold" letter-spacing="-.5142857"><tspan x="89" y="13">Tests</tspan></text><circle cx="74.5" cy="10.5" r="4.5"/><text font-family="Courier-Bold, Courier" font-size="13" font-weight="bold" letter-spacing="-.5142857"><tspan x=".704129" y="63">Encoable</tspan></text><circle cx="74.5" cy="59.5" r="4.5"/></g></g><g transform="matrix(1 0 0 -1 486 354)"><path d="m87.5 153.99142c14.666667.292808 22-6.908835 22-21.604927s0-57.2302594 0-127.60250301" stroke="#c1c9d8" stroke-width="3"/><g fill="#c1c9d8"><text font-family="Courier-Bold, Courier" font-size="13" font-weight="bold" letter-spacing="-.5142857" transform="matrix(1 0 0 -1 0 16)"><tspan x="58.565081" y="13">Tests</tspan></text><circle cx="109.5" cy="5.5" r="4.5"/><text font-family="Courier-Bold, Courier" font-size="13" font-weight="bold" letter-spacing="-.5142857" transform="matrix(1 0 0 -1 0 110)"><tspan x="124" y="52">File System</tspan> <tspan x="124" y="68">Support</tspan></text><circle cx="109.5" cy="54.5" r="4.5"/><text font-family="Courier-Bold, Courier" font-size="13" font-weight="bold" letter-spacing="-.5142857" transform="matrix(1 0 0 -1 0 208)"><tspan x=".26921" y="101">Binary Reader</tspan> <tspan x="36.704129" y="117">&amp; Wrtier</tspan></text><circle cx="109.5" cy="103.5" r="4.5"/></g></g><g transform="translate(621 43)"><path d="m52.5 156.99142c14.6666667.292808 22-6.908835 22-21.604927s0-54.3353494 0-118.9177729" stroke="#c1c9d8" stroke-width="3"/><g fill="#c1c9d8"><text font-family="Courier-Bold, Courier" font-size="13" font-weight="bold" letter-spacing="-.5142857"><tspan x="22.565081" y="13">Linux</tspan> <tspan x="7.991113" y="29">Support</tspan></text><circle cx="74.5" cy="15.5" r="4.5"/><text font-family="Courier-Bold, Courier" font-size="13" font-weight="bold" letter-spacing="-.5142857"><tspan x="89" y="60">SPM</tspan></text><circle cx="74.5" cy="57.5" r="4.5"/><text font-family="Courier-Bold, Courier" font-size="13" font-weight="bold" letter-spacing="-.5142857"><tspan x=".704129" y="110">Carthage</tspan></text><circle cx="74.5" cy="106.5" r="4.5"/></g></g><g transform="matrix(1 0 0 -1 686 354)"><path d="m87.5 153.99142c14.666667.292808 22-6.908835 22-21.604927s0-57.2302594 0-127.60250301" stroke="#c1c9d8" stroke-width="3"/><g fill="#c1c9d8"><text font-family="Courier-Bold, Courier" font-size="13" font-weight="bold" letter-spacing="-.5142857" transform="matrix(1 0 0 -1 0 16)"><tspan x=".26921" y="13">Documentation</tspan></text><circle cx="109.5" cy="5.5" r="4.5"/><text font-family="Courier-Bold, Courier" font-size="13" font-weight="bold" letter-spacing="-.5142857" transform="matrix(1 0 0 -1 0 110)"><tspan x="124" y="52">Encoding</tspan> <tspan x="124" y="68">Inferrals</tspan></text><circle cx="109.5" cy="54.5" r="4.5"/><text font-family="Courier-Bold, Courier" font-size="13" font-weight="bold" letter-spacing="-.5142857" transform="matrix(1 0 0 -1 0 208)"><tspan x="29.417146" y="101">CSVReader</tspan> <tspan x="29.417146" y="117">Inferrals</tspan></text><circle cx="109.5" cy="103.5" r="4.5"/></g></g><path d="m10 200h364" stroke="#4b536a" stroke-linecap="square" stroke-width="3"/></g></svg>

<svg xmlns="http://www.w3.org/2000/svg" width="900" height="317" viewBox="0 0 900 317">
  <g fill="none" fill-rule="evenodd">
    <g transform="translate(14 30)">
      <path stroke="#4B536A" stroke-width="3" d="M59.5,109.99142 C74.1666667,110.284228 81.5,103.082585 81.5,88.3864934 C81.5,73.6904014 81.5,47.8036161 81.5,10.7261376"/>
      <text fill="#4B536A" font-family="Courier-Bold, Courier" font-size="13" font-weight="bold" letter-spacing="-.514">
        <tspan x="96" y="13">Tests</tspan>
      </text>
      <circle cx="81.5" cy="10.5" r="4.5" fill="#4B536A"/>
      <text fill="#4B536A" font-family="Courier-Bold, Courier" font-size="13" font-weight="bold" letter-spacing="-.514">
        <tspan x=".417" y="63">CSVReader</tspan>
      </text>
      <circle cx="81.5" cy="59.5" r="4.5" fill="#4B536A"/>
    </g>
    <g transform="matrix(1 0 0 -1 115 246)">
      <path stroke="#4B536A" stroke-width="3" d="M58.5,105.99142 C73.1666667,106.284228 80.5,99.0825854 80.5,84.3864934 C80.5,69.6904014 80.5,43.8036161 80.5,6.72613757"/>
      <text fill="#4B536A" font-family="Courier-Bold, Courier" font-size="13" font-weight="bold" letter-spacing="-.514" transform="matrix(1 0 0 -1 0 16)">
        <tspan x="95" y="13">Tests</tspan>
      </text>
      <circle cx="80.5" cy="6.5" r="4.5" fill="#4B536A"/>
      <text fill="#4B536A" font-family="Courier-Bold, Courier" font-size="13" font-weight="bold" letter-spacing="-.514" transform="matrix(1 0 0 -1 0 114)">
        <tspan x=".417" y="62">CSVWriter</tspan>
      </text>
      <circle cx="80.5" cy="55.5" r="4.5" fill="#4B536A"/>
    </g>
    <g transform="translate(171 22)">
      <path stroke="#4B536A" stroke-width="3" d="M102.5,117.99142 C117.166667,118.284228 124.5,111.082585 124.5,96.3864934 C124.5,81.6904014 124.5,55.8036161 124.5,18.7261376"/>
      <text fill="#4B536A" font-family="Courier-Bold, Courier" font-size="13" font-weight="bold" letter-spacing="-.514">
        <tspan x="140" y="13">Codable</tspan> <tspan x="140" y="29">Configuration</tspan>
      </text>
      <circle cx="124.5" cy="18.5" r="4.5" fill="#4B536A"/>
      <text fill="#4B536A" font-family="Courier-Bold, Courier" font-size="13" font-weight="bold" letter-spacing="-.514">
        <tspan x=".695" y="63">Reader &amp; Writer</tspan> <tspan x="15.269" y="79">Configuration</tspan>
      </text>
      <circle cx="124.5" cy="67.5" r="4.5" fill="#4B536A"/>
    </g>
    <path stroke="#C1C9D8" stroke-linecap="square" stroke-width="3" d="M569.5,140.5 L890,140"/>
    <g transform="matrix(1 0 0 -1 315 246)">
      <path stroke="#4B536A" stroke-width="3" d="M58.5,105.99142 C73.1666667,106.284228 80.5,99.0825854 80.5,84.3864934 C80.5,69.6904014 80.5,43.8036161 80.5,6.72613757"/>
      <text fill="#4B536A" font-family="Courier-Bold, Courier" font-size="13" font-weight="bold" letter-spacing="-.514" transform="matrix(1 0 0 -1 0 16)">
        <tspan x="95" y="13">Tests</tspan>
      </text>
      <circle cx="80.5" cy="6.5" r="4.5" fill="#4B536A"/>
      <text fill="#4B536A" font-family="Courier-Bold, Courier" font-size="13" font-weight="bold" letter-spacing="-.514" transform="matrix(1 0 0 -1 0 114)">
        <tspan x=".417" y="62">Decodable</tspan>
      </text>
      <circle cx="80.5" cy="55.5" r="4.5" fill="#4B536A"/>
    </g>
    <g transform="translate(421 30)">
      <path stroke="#C1C9D8" stroke-width="3" d="M52.5,109.99142 C67.1666667,110.284228 74.5,103.082585 74.5,88.3864934 C74.5,73.6904014 74.5,47.8036161 74.5,10.7261376"/>
      <text fill="#C1C9D8" font-family="Courier-Bold, Courier" font-size="13" font-weight="bold" letter-spacing="-.514">
        <tspan x="89" y="13">Tests</tspan>
      </text>
      <circle cx="74.5" cy="10.5" r="4.5" fill="#C1C9D8"/>
      <text fill="#C1C9D8" font-family="Courier-Bold, Courier" font-size="13" font-weight="bold" letter-spacing="-.514">
        <tspan x=".704" y="63">Encoable</tspan>
      </text>
      <circle cx="74.5" cy="59.5" r="4.5" fill="#C1C9D8"/>
    </g>
    <g transform="matrix(1 0 0 -1 486 294)">
      <path stroke="#C1C9D8" stroke-width="3" d="M87.5,153.99142 C102.166667,154.284228 109.5,147.082585 109.5,132.386493 C109.5,117.690401 109.5,75.1562336 109.5,4.78398999"/>
      <text fill="#C1C9D8" font-family="Courier-Bold, Courier" font-size="13" font-weight="bold" letter-spacing="-.514" transform="matrix(1 0 0 -1 0 16)">
        <tspan x="58.565" y="13">Tests</tspan>
      </text>
      <circle cx="109.5" cy="5.5" r="4.5" fill="#C1C9D8"/>
      <text fill="#C1C9D8" font-family="Courier-Bold, Courier" font-size="13" font-weight="bold" letter-spacing="-.514" transform="matrix(1 0 0 -1 0 110)">
        <tspan x="124" y="52">File System</tspan> <tspan x="124" y="68">Support</tspan>
      </text>
      <circle cx="109.5" cy="54.5" r="4.5" fill="#C1C9D8"/>
      <text fill="#C1C9D8" font-family="Courier-Bold, Courier" font-size="13" font-weight="bold" letter-spacing="-.514" transform="matrix(1 0 0 -1 0 208)">
        <tspan x=".269" y="101">Binary Reader</tspan> <tspan x="36.704" y="117">&amp; Writer</tspan>
      </text>
      <circle cx="109.5" cy="103.5" r="4.5" fill="#C1C9D8"/>
    </g>
    <g transform="translate(658 22)">
      <path stroke="#4B536A" stroke-width="3" d="M15.5,117.99142 C30.1666667,118.284228 37.5,111.082585 37.5,96.3864934 C37.5,81.6904014 37.5,72.3492598 37.5,68.3630688"/>
      <path stroke="#C1C9D8" stroke-width="3" d="M37.5,67.5 L37.5,18.7261376"/>
      <text fill="#C1C9D8" font-family="Courier-Bold, Courier" font-size="13" font-weight="bold" letter-spacing="-.514">
        <tspan x="52" y="13">Linux</tspan> <tspan x="52" y="29">Support</tspan>
      </text>
      <circle cx="37.5" cy="18.5" r="4.5" fill="#C1C9D8"/>
      <text fill="#4B536A" font-family="Courier-Bold, Courier" font-size="13" font-weight="bold" letter-spacing="-.514">
        <tspan x=".139" y="71">SPM</tspan>
      </text>
      <circle cx="37.5" cy="67.5" r="4.5" fill="#4B536A"/>
    </g>
    <g transform="matrix(1 0 0 -1 686 294)">
      <path stroke="#C1C9D8" stroke-width="3" d="M87.5,153.99142 C102.166667,154.284228 109.5,147.082585 109.5,132.386493 C109.5,117.690401 109.5,75.1562336 109.5,4.78398999"/>
      <text fill="#C1C9D8" font-family="Courier-Bold, Courier" font-size="13" font-weight="bold" letter-spacing="-.514" transform="matrix(1 0 0 -1 0 16)">
        <tspan x=".269" y="13">Documentation</tspan>
      </text>
      <circle cx="109.5" cy="5.5" r="4.5" fill="#C1C9D8"/>
      <text fill="#C1C9D8" font-family="Courier-Bold, Courier" font-size="13" font-weight="bold" letter-spacing="-.514" transform="matrix(1 0 0 -1 0 110)">
        <tspan x="124" y="52">Encoding</tspan> <tspan x="124" y="68">Inferrals</tspan>
      </text>
      <circle cx="109.5" cy="54.5" r="4.5" fill="#C1C9D8"/>
      <text fill="#C1C9D8" font-family="Courier-Bold, Courier" font-size="13" font-weight="bold" letter-spacing="-.514" transform="matrix(1 0 0 -1 0 208)">
        <tspan x="29.417" y="101">CSVReader</tspan> <tspan x="29.417" y="117">Inferrals</tspan>
      </text>
      <circle cx="109.5" cy="103.5" r="4.5" fill="#C1C9D8"/>
    </g>
    <path stroke="#4B536A" stroke-linecap="square" stroke-width="3" d="M10,140.5 L676,140.5"/>
  </g>
</svg>
